X:1
T:[ID 2-56a]
T:[ID 2-56a]
T:Bezeichnung standardisiert: Menuett Men\"uet 15
T:Urheber unbekannt Datum in der hier transkribierten schriftlichen Quelle: 1767
C:Urheber unbekannt
C:Datum in der hier transkribierten schriftlichen Quelle: 1767
L:1/8
M:3/4
K:D
V:1 treble 
V:1
 bf f4 | fd d4 | dcFc d2 | c2 FEDC |"^O)" d4 e2 | fefcAF |"^O)" d4 e2 | fefcAF | BdcBAG | C6 :: %10
 f4 (3gfe | d2 d2 d2 | e4 (3fed | c2 c2 c2 | d4 (3edc | B2 B2 B2 | A4 B2 | c2 FEDC |"^O)" G4 A2 | %19
 BABFDB, |"^O)" G4 A2 | BABFDB, | cedGFE | F6 :| %24

